X: 3
T: Bill Malley's
R: barndance
M: 4/4
L: 1/8
K: Gmaj
D|:G3A B2 GB|dedB G2 d2|B2 G2 d2 G2|B2 A2 A2 D2|
|G3A B2 GB|dedB G2 A2|B2 AG EG/E/ DE|1 G4 G2 D2:|2 G4 G2 g2|
|:ef/e/ de g3e|dedB G3g|ef/e/ de g3d|B2 A2 A2 g2|
|ef/e/ de g3e|dedB G3A|B2 AG EG/E/ DE|1 G4 G2 g2:|2 G4 G4|


Tune 162	Setting 12787

